X: 100137
M: C|
L: 1/16
K: A
uc2 |\
[E3C3](Ac3e) [E3C3](Ac3e) | (d3B)(c3A) FFF2 {GF^E}F4 |\
[E3C3](Ac3e) [E3C3](Ac3f) | (.e3.d)(c3B) AAA2 A2 :|
ug2 |\
(fefg) (a3c) (e3c)(a3c) | (d3B)(c3A) FFF2 ~F4 |\
(fefg) (a3c) (e3c) (a3c) | (fefg) (a3c) AAA2 (A3 ||
g) |\
(fefg) (a3c) (e3c) (a3c) | (d3B)(c3A) FFF2 ~F4 |\


